<?xml version="1.0" encoding="UTF-8"?>
<map version="1.10" tiledversion="1.12.1" orientation="orthogonal" renderorder="right-down" width="80" height="20" tilewidth="16" tileheight="16" infinite="0" nextlayerid="3" nextobjectid="66">
 <tileset firstgid="1" source="Tileset.tsx"/>
 <tileset firstgid="57" source="Trees.tsx"/>
 <tileset firstgid="65" source="Player.tsx"/>
 <layer id="1" name="Collisions" width="80" height="20">
  <data encoding="csv">
0,0,0,0,0,0,0,0,0,0,0,0,0,0,0,0,0,0,0,0,0,0,0,0,0,0,0,0,0,0,0,0,0,0,0,0,0,0,0,0,0,0,0,0,0,0,0,0,0,0,0,0,0,0,0,0,0,0,0,0,0,0,0,0,0,0,0,0,0,0,0,0,0,0,0,0,0,0,0,0,
0,0,0,0,0,0,0,0,0,0,0,0,0,0,0,0,0,0,0,0,0,0,0,0,0,0,0,0,0,0,0,0,0,0,0,0,0,0,0,0,0,0,0,0,0,0,0,0,0,0,0,0,0,0,0,0,0,0,0,0,0,0,0,0,0,0,0,0,0,0,0,0,0,0,0,0,0,0,0,0,
0,0,0,0,0,0,0,0,0,0,0,0,0,0,0,0,0,0,0,0,0,0,0,0,0,0,0,0,0,0,0,0,0,0,0,0,0,0,0,0,0,0,0,0,0,0,0,0,0,0,0,0,0,0,0,0,0,0,0,0,0,0,0,0,0,0,0,0,0,0,0,0,0,0,0,0,0,0,0,0,
0,0,0,0,0,0,0,0,0,0,0,0,0,0,0,0,0,0,0,0,0,0,0,0,0,0,0,0,0,0,0,0,0,0,0,0,0,0,0,0,0,0,0,0,0,0,0,0,0,0,0,0,0,0,0,0,0,0,0,0,0,0,0,0,0,0,0,0,0,0,0,0,0,0,0,0,0,0,0,0,
0,0,0,0,0,0,0,0,0,0,0,0,0,0,0,0,0,0,0,0,0,0,0,0,0,0,0,0,0,0,0,0,0,0,0,0,0,0,0,0,0,0,0,0,0,0,0,0,0,0,0,0,0,0,0,0,0,0,0,0,0,0,0,0,0,0,0,0,0,0,0,0,0,0,0,0,0,0,0,0,
0,0,0,0,0,0,0,0,0,0,0,0,0,0,0,0,0,0,0,0,0,0,0,0,0,0,0,0,0,0,0,0,0,0,0,0,0,0,0,0,0,0,0,0,0,0,0,0,0,0,0,0,0,0,0,0,0,0,0,0,0,0,0,0,0,0,0,0,0,0,0,0,0,0,0,0,0,0,0,0,
0,0,0,0,0,0,0,0,0,0,0,0,0,0,0,0,0,0,0,0,0,0,0,0,0,0,0,0,0,0,0,0,0,0,0,0,0,0,0,0,0,0,0,0,0,0,0,0,0,0,0,0,0,0,0,0,0,0,0,0,0,0,0,0,0,0,0,0,0,0,0,0,0,0,0,0,0,0,0,0,
0,0,0,0,0,0,0,0,0,0,0,0,0,0,0,0,0,0,0,0,0,0,0,0,0,0,0,0,0,0,0,0,0,0,0,0,0,0,0,0,0,0,0,0,0,0,0,0,0,0,0,0,0,0,0,0,0,0,0,0,0,0,0,0,0,0,0,0,0,0,0,0,0,0,0,0,0,0,0,0,
0,0,0,0,0,0,0,0,0,0,0,0,0,0,0,0,0,0,0,0,0,0,0,0,0,0,0,0,0,0,0,0,0,0,0,0,0,0,0,0,0,0,0,0,0,0,0,0,0,0,0,0,0,0,0,0,0,0,0,0,0,0,0,0,0,0,0,0,0,0,0,0,0,0,0,0,0,0,0,0,
0,0,0,0,0,0,0,0,0,0,0,0,0,0,0,0,0,0,0,0,0,0,0,0,0,0,0,0,0,0,0,0,0,0,0,0,0,0,0,0,0,0,0,0,0,0,0,0,0,0,0,0,0,0,0,0,0,0,0,0,0,0,0,0,0,0,0,0,0,0,0,0,0,0,0,0,0,0,0,0,
0,0,0,0,0,0,0,0,0,0,0,0,0,0,0,0,0,0,0,0,0,0,0,0,0,0,0,0,0,0,0,0,0,0,0,0,0,0,0,0,0,0,0,0,0,0,0,0,0,0,0,0,0,0,0,0,0,0,0,0,0,0,0,0,0,0,0,0,0,0,0,0,0,0,0,0,0,0,0,0,
0,0,0,0,0,0,0,0,0,0,0,0,0,0,0,0,0,0,0,0,0,0,0,0,0,0,0,0,0,0,0,0,0,0,0,0,0,0,0,0,0,0,0,0,0,0,0,0,0,0,0,0,0,0,1,2,3,4,5,1,1,2,3,4,5,6,4,5,1,2,3,4,1,2,1,2,3,4,5,6,
0,0,0,0,0,0,0,0,0,0,0,0,0,0,0,0,0,0,0,0,0,0,0,0,0,0,0,0,0,0,0,0,0,0,0,0,0,0,0,0,0,0,0,0,0,0,0,0,0,0,0,0,0,1,8,9,10,11,8,9,10,11,12,13,10,11,12,8,8,9,10,8,9,10,8,9,10,11,12,13,
1,2,3,4,1,2,3,4,5,6,1,1,2,3,1,2,3,4,5,6,5,1,1,1,1,2,3,1,2,1,2,3,4,5,6,1,2,3,4,1,2,3,4,5,6,1,1,2,3,4,5,6,1,8,8,9,10,11,12,13,8,9,10,11,12,13,12,13,12,13,13,13,13,13,11,12,13,13,12,13,
8,9,10,11,12,13,8,9,10,11,12,13,8,9,10,11,12,13,8,9,10,11,12,13,8,9,10,11,12,13,8,9,10,11,12,13,8,9,8,9,10,11,12,8,9,10,11,12,13,9,10,11,12,13,8,9,10,11,12,13,8,9,10,11,12,13,8,9,10,11,12,13,13,10,8,9,10,11,12,13,
8,9,8,9,10,8,9,10,11,8,9,10,11,12,13,10,11,12,13,11,12,13,12,8,9,10,11,12,13,12,13,11,12,13,12,13,8,9,10,11,12,13,8,9,10,11,12,13,8,9,10,11,8,9,10,11,12,13,12,13,8,9,10,11,12,13,13,11,12,13,10,11,12,13,9,10,11,12,13,13,
8,9,10,11,8,8,9,8,9,10,11,12,13,12,13,13,12,13,8,9,10,11,8,8,8,8,8,9,10,11,12,8,9,8,8,8,9,10,11,12,13,8,8,8,9,10,11,8,9,10,11,12,13,13,10,11,12,13,10,11,12,13,13,15,16,17,18,19,20,21,10,11,12,13,13,8,9,10,11,12,
15,16,17,18,15,16,17,18,19,20,15,16,17,18,19,20,15,16,17,18,19,20,21,19,20,15,16,17,18,19,20,15,15,16,17,18,19,20,21,15,16,17,18,15,16,17,18,15,16,17,18,19,15,16,17,18,19,20,15,16,15,16,15,15,15,16,17,18,15,16,15,16,17,15,16,17,18,19,20,21,
17,18,19,20,21,21,21,15,16,17,15,16,17,18,19,15,15,16,17,15,16,17,15,15,15,16,17,18,19,20,21,15,15,16,17,15,16,17,18,15,16,17,18,15,16,17,18,15,16,17,18,15,15,16,17,18,19,20,15,15,15,16,17,15,15,16,17,18,15,15,15,15,15,16,17,18,19,20,21,21,
15,16,17,18,19,20,21,16,17,18,15,15,16,17,18,15,15,15,15,15,15,15,16,15,15,16,17,18,19,20,21,19,15,15,16,15,16,17,15,16,15,15,15,15,16,17,15,16,17,18,19,20,15,15,16,17,18,19,15,15,16,17,18,19,15,15,16,17,18,19,20,15,16,15,15,16,17,18,19,20
</data>
 </layer>
 <objectgroup id="2" name="Entities">
  <object id="1" name="Tree1" gid="57" x="96" y="208" width="32" height="48"/>
  <object id="54" name="Tree1" gid="57" x="464" y="208" width="32" height="48"/>
  <object id="50" name="Tree1" gid="57" x="1104" y="176" width="32" height="48"/>
  <object id="51" name="Tree1" gid="57" x="688" y="208" width="32" height="48"/>
  <object id="53" name="Tree1" gid="57" x="992" y="176" width="32" height="48"/>
  <object id="52" name="Tree1" gid="57" x="1216" y="176" width="32" height="48"/>
  <object id="47" name="Tree1" gid="57" x="880" y="176" width="32" height="48"/>
  <object id="46" name="Tree1" gid="57" x="928" y="176" width="32" height="48"/>
  <object id="45" name="Tree1" gid="57" x="1232" y="176" width="32" height="48"/>
  <object id="44" name="Tree1" gid="57" x="1040" y="176" width="32" height="48"/>
  <object id="2" name="Tree2" gid="60" x="160" y="208" width="32" height="48"/>
  <object id="58" name="Tree2" gid="60" x="400" y="208" width="32" height="48"/>
  <object id="57" name="Tree2" gid="60" x="560" y="208" width="32" height="48"/>
  <object id="56" name="Tree2" gid="60" x="736" y="208" width="32" height="48"/>
  <object id="55" name="Tree2" gid="60" x="864" y="176" width="32" height="48"/>
  <object id="42" name="Tree2" gid="60" x="320" y="208" width="32" height="48"/>
  <object id="41" name="Tree2" gid="60" x="304" y="208" width="32" height="48"/>
  <object id="3" name="Tree3" gid="58" x="208" y="208" width="32" height="48"/>
  <object id="62" name="Tree3" gid="58" x="544" y="208" width="32" height="48"/>
  <object id="61" name="Tree3" gid="58" x="624" y="208" width="32" height="48"/>
  <object id="60" name="Tree3" gid="58" x="416" y="208" width="32" height="48"/>
  <object id="59" name="Tree3" gid="58" x="720" y="208" width="32" height="48"/>
  <object id="4" name="Tree4" gid="59" x="256" y="208" width="32" height="48"/>
  <object id="65" name="Tree4" gid="59" x="528" y="208" width="32" height="48"/>
  <object id="64" name="Tree4" gid="59" x="1184" y="176" width="32" height="48"/>
  <object id="63" name="Tree4" gid="59" x="944" y="176" width="32" height="48"/>
  <object id="43" name="Tree4" gid="59" x="336" y="208" width="32" height="48"/>
  <object id="40" name="PlayerSpawn" gid="65" x="16.25" y="216.75" width="32" height="32"/>
 </objectgroup>
</map>
