<?xml version="1.0" encoding="UTF-8"?>
<map version="1.10" tiledversion="1.12.1" orientation="orthogonal" renderorder="right-down" width="80" height="20" tilewidth="16" tileheight="16" infinite="0" nextlayerid="3" nextobjectid="21">
 <tileset firstgid="1" source="Tileset.tsx"/>
 <tileset firstgid="57" source="Trees.tsx"/>
 <layer id="1" name="Collisions" width="80" height="20">
  <data encoding="csv">
0,0,0,0,0,0,0,0,0,0,0,0,0,0,0,0,0,0,0,0,0,0,0,0,0,0,0,0,0,0,0,0,0,0,0,0,0,0,0,0,0,0,0,0,0,0,0,0,0,0,0,0,0,0,0,0,0,0,0,0,0,0,0,0,0,0,0,0,0,0,0,0,0,0,0,0,0,0,0,0,
0,0,0,0,0,0,0,0,0,0,0,0,0,0,0,0,0,0,0,0,0,0,0,0,0,0,0,0,0,0,0,0,0,0,0,0,0,0,0,0,0,0,0,0,0,0,0,0,0,0,0,0,0,0,0,0,0,0,0,0,0,0,0,0,0,0,0,0,0,0,0,0,0,0,0,0,0,0,0,0,
0,0,0,0,0,0,0,0,0,0,0,0,0,0,0,0,0,0,0,0,0,0,0,0,0,0,0,0,0,0,0,0,0,0,0,0,0,0,0,0,0,0,0,0,0,0,0,0,0,0,0,0,0,0,0,0,0,0,0,0,0,0,0,0,0,0,0,0,0,0,0,0,0,0,0,0,0,0,0,0,
0,0,0,0,0,0,0,0,0,0,0,0,0,0,0,0,0,0,0,0,0,0,0,0,0,0,0,0,0,0,0,0,0,0,0,0,0,0,0,0,0,0,0,0,0,0,0,0,0,0,0,0,0,0,0,0,0,0,0,0,0,0,0,0,0,0,0,0,0,0,0,0,0,0,0,0,0,0,0,0,
0,0,0,0,0,0,0,0,0,0,0,0,0,0,0,0,0,0,0,0,0,0,0,0,0,0,0,0,0,0,0,0,0,0,0,0,0,0,0,0,0,0,0,0,0,0,0,0,0,0,0,0,0,0,0,0,0,0,0,0,0,0,0,0,0,0,0,0,0,0,0,0,0,0,0,0,0,0,0,0,
0,0,0,0,0,0,0,0,0,0,0,0,0,0,0,0,0,0,0,0,0,0,0,0,0,0,0,0,0,0,0,0,0,0,0,0,0,0,0,0,0,0,0,0,0,0,0,0,0,0,0,0,0,0,0,0,0,0,0,0,0,0,0,0,0,0,0,0,0,0,0,0,0,0,0,0,0,0,0,0,
0,0,0,0,0,0,0,0,0,0,0,0,0,0,0,0,0,0,0,0,0,0,0,0,0,0,0,0,0,0,0,0,0,0,0,0,0,0,0,0,0,0,0,0,0,0,0,0,0,0,0,0,0,0,0,0,0,0,0,0,0,0,0,0,0,0,0,0,0,0,0,0,0,0,0,0,0,0,0,0,
0,0,0,0,0,0,0,0,0,0,0,0,0,0,0,0,0,0,0,0,0,0,0,0,0,0,0,0,0,0,0,0,0,0,0,0,0,0,0,0,0,0,0,0,0,0,0,0,0,0,0,0,0,0,0,0,0,0,0,0,0,0,0,0,0,0,0,0,0,0,0,0,0,0,0,0,0,0,0,0,
0,0,0,0,0,0,0,0,0,0,0,0,0,0,0,0,0,0,0,0,0,0,0,0,0,0,0,0,0,0,0,0,0,0,0,0,0,0,0,0,0,0,0,0,0,0,0,0,0,0,0,0,0,0,0,0,0,0,0,0,0,0,0,0,0,0,0,0,0,0,0,0,0,0,0,0,0,0,0,0,
0,0,0,0,0,0,0,0,0,0,0,0,0,0,0,0,0,0,0,0,0,0,0,0,0,0,0,0,0,0,0,0,0,0,0,0,0,0,0,0,0,0,0,0,0,0,0,0,0,0,0,0,0,0,0,0,0,0,0,0,0,0,0,0,0,0,0,0,0,0,0,0,0,0,0,0,0,0,0,0,
0,0,0,0,0,0,0,0,0,0,0,0,0,0,0,0,0,0,0,0,0,0,0,0,0,0,0,0,0,0,0,0,0,0,0,0,0,0,0,0,0,0,0,0,0,0,0,0,0,0,0,0,0,0,0,0,0,0,0,0,0,0,0,0,0,0,0,0,0,0,0,0,0,0,0,0,0,0,0,0,
0,0,0,0,0,0,0,0,0,0,0,0,0,0,0,0,0,0,0,0,0,0,0,0,0,0,0,0,0,0,0,0,0,0,0,0,0,0,0,0,0,0,0,0,0,0,0,0,0,0,0,0,0,0,0,0,0,0,0,0,0,0,0,0,0,0,0,0,0,0,0,0,0,0,0,0,0,0,0,0,
0,0,0,0,0,0,0,0,0,0,0,0,0,0,0,0,0,0,0,0,0,0,0,0,0,0,0,0,0,0,0,0,0,0,0,0,0,0,0,29,29,30,31,32,0,0,0,0,0,0,0,0,0,0,0,0,0,0,0,0,0,29,30,29,29,30,31,32,30,31,32,29,29,29,29,30,31,32,31,32,
0,0,0,0,0,0,0,0,0,0,0,0,0,0,0,0,0,0,0,0,0,0,0,0,0,0,0,0,0,0,0,0,0,0,0,0,29,30,31,37,38,37,38,39,32,29,29,29,30,31,29,29,29,29,29,29,29,29,30,31,29,36,37,38,39,40,41,42,42,41,36,37,38,39,40,41,42,31,32,38,
0,0,0,0,0,0,0,0,0,0,0,0,0,0,0,0,0,0,0,29,29,29,29,30,31,32,0,0,0,0,0,0,0,0,0,29,36,37,38,39,40,41,42,36,37,38,39,40,41,42,39,40,41,42,42,42,41,42,38,39,40,36,37,38,39,40,41,36,37,36,37,38,39,40,36,36,37,36,37,38,
29,30,29,29,29,29,29,29,30,29,29,29,30,31,29,29,29,29,30,36,37,38,39,40,41,42,29,29,29,29,29,29,29,29,30,36,37,38,39,40,41,36,37,36,37,38,39,36,37,38,39,40,41,42,36,37,38,39,40,36,37,36,37,38,39,40,41,42,36,37,38,39,40,41,36,36,36,37,38,39,
40,41,42,39,40,41,36,37,38,39,40,36,37,38,36,37,38,39,40,41,36,37,38,39,40,41,42,32,36,37,38,39,40,41,42,36,36,37,38,39,36,37,38,36,37,38,36,36,36,37,38,39,40,41,36,36,36,37,38,39,40,36,37,38,36,37,38,39,40,41,42,42,42,42,42,36,37,38,36,36,
37,38,39,36,36,37,38,39,40,41,42,37,36,36,37,38,39,40,36,37,38,39,40,41,42,41,42,36,37,38,36,37,38,36,36,36,36,37,36,36,36,36,36,36,36,36,36,36,36,36,36,37,36,37,38,39,36,36,37,38,39,40,41,36,36,37,36,37,36,36,37,38,39,40,41,42,38,39,40,36,
36,37,38,39,36,37,38,39,40,36,37,38,39,36,36,37,38,39,36,36,37,38,39,40,41,42,42,39,36,37,38,39,36,37,38,36,37,38,39,36,37,38,36,36,36,36,37,38,39,40,36,37,38,39,40,41,42,36,36,37,38,36,36,36,36,37,38,39,36,37,38,39,40,41,42,37,38,39,40,41,
38,39,40,36,36,37,38,39,40,36,36,36,37,38,36,37,38,39,36,37,38,36,37,36,37,38,39,36,36,36,37,38,39,40,41,36,37,38,36,37,38,39,40,36,36,37,38,39,40,36,37,38,39,40,41,42,42,40,41,42,42,41,42,36,37,38,39,36,37,38,39,40,41,42,42,41,42,36,36,36
</data>
 </layer>
 <objectgroup id="2" name="Entities">
  <object id="1" name="Tree5" gid="62" x="144" y="240" width="32" height="48"/>
  <object id="2" name="Tree5" gid="62" x="208" y="240" width="32" height="48"/>
  <object id="3" name="Tree5       " gid="62" x="224" y="240" width="32" height="48"/>
  <object id="4" name="Tree6" gid="63" x="320" y="224" width="32" height="48"/>
  <object id="5" name="Tree6" gid="63" x="336" y="224" width="32" height="48"/>
  <object id="6" name="Tree5" gid="62" x="352" y="224" width="32" height="48"/>
  <object id="7" name="Tree5" gid="62" x="448" y="240" width="32" height="48"/>
  <object id="8" name="Tree5  " gid="62" x="496" y="240" width="32" height="48"/>
  <object id="9" name="Tree6" gid="63" x="512" y="240" width="32" height="48"/>
  <object id="10" name="Tree6" gid="63" x="640" y="192" width="32" height="48"/>
  <object id="11" name="Tree6" gid="63" x="656" y="192" width="32" height="48"/>
  <object id="12" name="Tree5 " gid="62" x="672" y="192" width="32" height="48"/>
  <object id="13" name="Tree5" gid="62" x="624" y="192" width="32" height="48"/>
  <object id="14" name="Tree5" gid="62" x="800" y="208" width="32" height="48"/>
  <object id="15" name="Tree5" gid="62" x="816" y="208" width="32" height="48"/>
  <object id="16" name="Tree6" gid="63" x="912" y="208" width="32" height="48"/>
  <object id="17" name="Tree5" gid="62" x="928" y="208" width="32" height="48"/>
  <object id="18" name="Tree5" gid="62" x="1072" y="192" width="32" height="48"/>
  <object id="19" name="Tree5" gid="62" x="1104" y="192" width="32" height="48"/>
  <object id="20" name="Tree6" gid="63" x="1088" y="192" width="32" height="48"/>
 </objectgroup>
</map>
